svg/u26f0.svg

<svg viewBox="0 0 128 128" xmlns="http://www.w3.org/2000/svg">
  <path d="M65.03,92.69c0,0-60.23,18.39-60.36,19.72c-0.13,1.33,24.11,12.02,64.62,11.46 c38.64-0.53,53.57-10.39,53.83-11.46S66.36,92.42,65.03,92.69z" fill="#B9CE46"/>
  <path d="M62.26,42.15l-4.31-5.42c0,0-6.96,7.3-8.84,9.29c-1.88,1.99-3.33,3.14-4.23,5.01 c-1.29,2.67-5.38,25.72-5.38,25.72L27.67,88.9c0,0-2.23-1.39-2.78-0.94S6.22,110.01,6.22,110.01l-1.56,2.39c0,0,3.6,0.8,4.71,0.69 c0.54-0.05,3.2-0.66,6.21-0.97c3.17-0.33,7.22-0.06,7.67-0.11c0.51-0.05,2.27-0.57,2.27-0.57l15.74-9.39l12.93-3.21l11.83,5.31 l23.21,1.11l12.71-19.01L74.31,49.66L62.26,42.15z" fill="#9EA2A3"/>
  <path d="M28.55,97.77c0,0-0.43-1.23-0.75-2.14c-0.32-0.91-0.13-6.73-0.13-6.73s7.21,4.26,8.01,4.96 s7.94,5.15,7.94,5.15s5.09-0.64,6.86-0.75c1.77-0.11,4.83,0.05,4.83,0.05l-1.18,1.72c0,0-11.53,3.75-13.57,4.4 c-2.04,0.64-15.11,7.29-15.09,7.04c0.04-0.52,3.4-5.33,3.4-5.33L28.55,97.77z" fill="#717A7C"/>
  <path d="M80.73,103.46l-49.26,7.78c0,0-2.38,2.11-2.14,2.67c0.24,0.56,9.33,2.25,12.47,2.65 c3.14,0.4,24.61,1.61,26.94,1.45c2.33-0.16,26.14-1.37,29.44-1.77c3.3-0.4,14.39-1.17,15.12-1.5c1.41-0.64,7.88-4.13,7.88-4.13 s-7.24-11.42-8.69-14.16c-1.45-2.73-3.86-7.64-5.55-9.33s-2.9-2.41-2.9-2.41s-2.28-5.3-4.94-8.68c-2.65-3.38-5.8-9.3-6.64-10.14 c-3.19-3.18-3.77-3.03-3.77-3.03l2,24.1c0,0-3.7,7.4-4.99,9.41C84.43,98.4,80.73,103.46,80.73,103.46z" fill="#717A7C"/>
  <path d="M63.03,27.62l-0.97,19.62l11.41,7.08c0,0,3.43,8.79,3.59,9.6c0.16,0.8-0.15,2.97,0.17,3.53 c0.32,0.56,6.23,4.63,6.46,4.64c1.31,0.07,4.02-0.4,3.86-0.64s1.08-5.46,1.08-5.46s-7.84-12.71-9.53-16.25 c-1.69-3.54-8.04-12.71-8.77-14.24s-4.18-6.6-4.91-7.4S63.52,27.06,63.03,27.62z" fill="#717A7C"/>
  <path d="M68.02,65.05c0,0,5.39-8.88,5.55-10.24s-4.34-9.65-5.47-12.63c-1.13-2.98-4.1-9.09-4.42-9.89 c-0.32-0.8-0.64-4.66-0.64-4.66s-2.25,2.41-3.06,4.34c-0.8,1.93-3.83,6.68-3.83,6.68s1.9,11.02,2.63,15.76 c0.72,4.75,1.26,10.98,1.15,11.21c-0.69,1.4-5.33,12.68-5.33,12.68s-0.6,5.47-0.04,6.03c0.56,0.56,3.81,1.3,4.06,0.92 c0.49-0.73,0.48-3.5,0.48-3.5s9.02-12.18,9.31-12.78C68.52,68.74,68.02,65.05,68.02,65.05z" fill="#C0C0C0"/>
  <path d="M49.64,65.92c-0.03-1.21-1.8-6.95-2.12-8.24c-0.32-1.29-1-7.66-1.89-7.66 c-0.88,0-4.96,11.22-5.37,12.27c-0.4,1.05-6.11,13.35-6.84,14.8c-0.72,1.45-4.02,7.72-4.66,8.77s-1.49,2.83-1.49,2.83l16.34,10.33 l5.9-0.67c0,0-3.45-9.27-4.26-11.36s-1.77-5.47-1.77-5.47s1.87-4.48,3.09-7.7C47.8,70.58,49.68,67.12,49.64,65.92z" fill="#C0C0C0"/>
  <path d="M25.32,87.97c0.04,0.15,0.25,3.92,0.14,6.17c-0.11,2.26-0.55,4.52-0.55,4.52l-6.61,8.6 c0,0-11.96,4.63-12.68,4.85c-0.72,0.22-0.95,0.3-0.95,0.3s-1.5-0.91,2.99-5.81c5.8-6.33,13.22-15,14.16-16.09 C23.49,88.57,25.21,87.52,25.32,87.97z" fill="#C0C0C0"/>
  <path d="M39.8,90.59c-0.68-0.07-1.54,2.2-2,3.89c-0.33,1.19-2.46,7.22-2.71,8.39 c-0.26,1.18-1.58,4.66-1.22,4.82c0.36,0.15,3.15,0.35,4.64,0.04c1.48-0.31,4.72-2.91,4.72-3.52s-1.4-6.93-1.53-7.68 C41.34,94.38,40.86,90.7,39.8,90.59z" fill="#367C2D"/>
  <path d="M106.71,99.82c-0.6-0.25-2.13,6.52-2.45,8.91c-0.32,2.39-1.17,6.93-0.95,7.38 c0.64,1.27,7.46,0.43,8.12-0.66c0.19-0.31-0.77-5.4-1.46-7.55C109.03,104.96,108.26,100.47,106.71,99.82z" fill="#367C2D"/>
  <path d="M118.66,91.29c-0.94,0.04-1.94,8.25-2.56,10.04c-0.7,2.03-3.04,11.64-2.07,12.74 c0.97,1.1,4.68,0.23,6.06-0.17c1.33-0.38,2.48-1.02,2.8-1.73s-0.44-6.44-1.36-10.44C120.59,97.68,120.14,91.22,118.66,91.29z" fill="#367C2D"/>
  <path d="M31.47,111.25c0,0,2.59,0.98,11.46,1.53c8.87,0.55,13.23,0.5,13.23,0.5l20.26-2.96l4.6-7.28 c0,0-6.12-0.23-9.37-0.34c-3.25-0.11-8.1-0.13-8.32-0.73c-0.22-0.61,5.47-4.74,7.07-5.56c1.6-0.83,5.46-1.27,6.34-2.2 c0.88-0.94,12-7.21,13.37-7.26c1.38-0.06,5.68,2.59,6.5,2.31c0.83-0.28-2.86-10.04-3.35-11.87c-0.04-0.16-1.99-9.67-2.05-9.85 c-0.46-1.41-1.87-5.07-2.76-4.63c-0.88,0.44-2.37,3.8-3.47,7.16s-1.76,5.13-2.31,5.95s-6.94,4.91-7.83,5.84 c-0.88,0.94-3.53,2.92-5.13,3.58c-1.6,0.66-3.14,0.66-4.3,1.71c-1.16,1.05-2.59,2.87-4.19,4.57c-1.6,1.71-4.85,5.63-5.92,6.59 s-2.03,1.89-2.03,1.89s-7.73,2.19-10.33,3.45C40.36,104.92,30.8,111.08,31.47,111.25z" fill="#C0C0C0"/>
  <path d="M76.52,106.03c-0.72,0.06-1.73,5.46-2.09,6.66c-0.2,0.68-1.87,5.33-1.42,6.11 c0.9,1.6,8.3,1.17,8.63,0.33c0.32-0.84-2.11-6.46-2.56-7.5C78.62,110.61,77.58,105.94,76.52,106.03z" fill="#367C2D"/>
  <path d="M111.79,52.02c-0.85,0.85-0.88,2.2,0.06,2.97c0.83,0.69,2.2,0.24,2.71-0.38 c0.51-0.62,0.45-1.97-0.23-2.65S112.3,51.51,111.79,52.02z" fill="#FFFFFF"/>
  <path d="M112.07,64.67c-0.91,1-0.61,2.49,0.23,3.04c0.84,0.55,2.1,0.5,2.72-0.26 c0.55-0.68,0.61-2.04-0.23-2.88C114.06,63.84,112.66,64.02,112.07,64.67z" opacity="0.5" fill="#FFFFFF"/>
  <path d="M86,32.06c-0.26,0.83,0.26,1.77,1.05,1.91c0.83,0.15,1.68-0.09,1.91-0.88 c0.23-0.8-0.06-1.8-1.2-2C86.62,30.89,86.13,31.61,86,32.06z" opacity="0.6" fill="#FFFFFF"/>
  <path d="M94.54,46.11c0,0,0.74-2.72,1.28-2.81c0.54-0.09,1.62,2.92,1.62,2.92s2.69,0.09,2.78,0.51 c0.09,0.43-1.9,2.04-1.9,2.04s0.74,2.52,0.43,2.84c-0.31,0.31-2.78-1.28-2.78-1.28s-2.21,1.87-2.72,1.53 c-0.51-0.34,0.43-3.15,0.43-3.15s-2.1-1.5-2.13-2.01C91.51,46.19,94.54,46.11,94.54,46.11z" fill="#FFFFFF"/>
  <path d="M33.54,38.62c0,0,0.97-2.79,1.56-2.82c0.58-0.03,1.43,2.79,1.43,2.79s2.88,0.03,3.08,0.45 c0.25,0.54-1.85,2.37-1.85,2.37s0.68,2.72,0.36,3.05c-0.36,0.36-2.85-1.07-2.85-1.07s-2.56,1.78-3.11,1.3 c-0.48-0.42,0.52-3.31,0.52-3.31s-2.4-1.75-2.27-2.24C30.58,38.46,33.54,38.62,33.54,38.62z" fill="#FFFFFF"/>
  <path d="M11.86,46.11c-0.6-0.03-1.42,0.57-1.42,1.6c0,0.76,0.73,1.39,1.36,1.39 c0.91,0,1.54-0.69,1.51-1.48C13.27,46.59,12.49,46.14,11.86,46.11z" opacity="0.5" fill="#FFFFFF"/>
  <path d="M18.47,61.03c0.06,1.14,0.63,2.11,2.11,2.07s2.7-2.31,1.29-3.64C20.46,58.13,18.39,59.5,18.47,61.03z " fill="#FFFFFF"/>
  <path d="M8.65,74.98c0.7,0.78,2.38,0.47,2.42-0.9c0.04-1.25-0.59-1.84-1.76-1.68 C8.15,72.56,7.8,74.03,8.65,74.98z" fill="#FFFFFF"/>
  <path d="M45.91,92.85c-0.59,0.2-1.32,2.48-2.01,4.84c-0.44,1.49-1.72,5.96-1.41,6.18 c0.31,0.22,3.4,0.37,4.62-0.38s2.11-1.4,2.27-1.84c0.16-0.44-1.24-4.32-1.78-5.74C47.18,94.84,46.53,92.63,45.91,92.85z" fill="#367C2D"/>
  <path d="M35.53,20.08c-0.91,1-0.61,2.49,0.23,3.04c0.84,0.55,2.1,0.5,2.72-0.26 c0.55-0.68,0.61-2.04-0.23-2.88C37.52,19.26,36.11,19.44,35.53,20.08z" opacity="0.5" fill="#FFFFFF"/>
</svg>

<svg viewBox="0 0 128 128" xmlns="http://www.w3.org/2000/svg">
  <defs/>
  <path d="M65.03,92.69 C65.03,92.69 4.8,111.08 4.67,112.41 C4.54,113.74 28.78,124.43 69.29,123.87 C107.93,123.34 122.86,113.48 123.12,112.41 C123.38,111.34 66.36,92.42 65.03,92.69 Z" fill="#B9CE46"/>
  <path d="M62.26,42.15 L57.95,36.73 C57.95,36.73 50.99,44.03 49.11,46.02 C47.23,48.01 45.78,49.16 44.88,51.03 C43.59,53.7 39.5,76.75 39.5,76.75 L27.67,88.9 C27.67,88.9 25.44,87.51 24.89,87.96 C24.34,88.41 6.22,110.01 6.22,110.01 L4.66,112.4 C4.66,112.4 8.26,113.2 9.37,113.09 C9.91,113.04 12.57,112.43 15.58,112.12 C18.75,111.79 22.8,112.06 23.25,112.01 C23.76,111.96 25.52,111.44 25.52,111.44 L41.26,102.05 L54.19,98.84 L66.02,104.15 L89.23,105.26 L101.94,86.25 L74.31,49.66 L62.26,42.15 Z" fill="#9EA2A3"/>
  <path d="M28.55,97.77 C28.55,97.77 28.12,96.54 27.8,95.63 C27.48,94.72 27.67,88.9 27.67,88.9 C27.67,88.9 34.88,93.16 35.68,93.86 C36.48,94.56 43.62,99.01 43.62,99.01 C43.62,99.01 48.71,98.37 50.48,98.26 C52.25,98.15 55.31,98.31 55.31,98.31 L54.13,100.03 C54.13,100.03 42.6,103.78 40.56,104.43 C38.52,105.07 25.45,111.72 25.47,111.47 C25.51,110.95 28.87,106.14 28.87,106.14 L28.55,97.77 Z" fill="#717A7C"/>
  <path d="M80.73,103.46 L31.47,111.24 C31.47,111.24 29.09,113.35 29.33,113.91 C29.57,114.47 38.66,116.16 41.8,116.56 C44.94,116.96 66.41,118.17 68.74,118.01 C71.07,117.85 94.88,116.64 98.18,116.24 C101.48,115.84 112.57,115.07 113.3,114.74 C114.71,114.1 121.18,110.61 121.18,110.61 C121.18,110.61 113.94,99.19 112.49,96.45 C111.04,93.72 108.63,88.81 106.94,87.12 C105.25,85.43 104.04,84.71 104.04,84.71 C104.04,84.71 101.76,79.41 99.1,76.03 C96.45,72.65 93.3,66.73 92.46,65.89 C89.27,62.71 88.69,62.86 88.69,62.86 L90.69,86.96 C90.69,86.96 86.99,94.36 85.7,96.37 C84.43,98.4 80.73,103.46 80.73,103.46 Z" fill="#717A7C"/>
  <path d="M63.03,27.62 L62.06,47.24 L73.47,54.32 C73.47,54.32 76.9,63.11 77.06,63.92 C77.22,64.72 76.91,66.89 77.23,67.45 C77.55,68.01 83.46,72.08 83.69,72.09 C85,72.16 87.71,71.69 87.55,71.45 C87.39,71.21 88.63,65.99 88.63,65.99 C88.63,65.99 80.79,53.28 79.1,49.74 C77.41,46.2 71.06,37.03 70.33,35.5 C69.6,33.97 66.15,28.9 65.42,28.1 C64.69,27.3 63.52,27.06 63.03,27.62 Z" fill="#717A7C"/>
  <path d="M68.02,65.05 C68.02,65.05 73.41,56.17 73.57,54.81 C73.73,53.45 69.23,45.16 68.1,42.18 C66.97,39.2 64,33.09 63.68,32.29 C63.36,31.49 63.04,27.63 63.04,27.63 C63.04,27.63 60.79,30.04 59.98,31.97 C59.18,33.9 56.15,38.65 56.15,38.65 C56.15,38.65 58.05,49.67 58.78,54.41 C59.5,59.16 60.04,65.39 59.93,65.62 C59.24,67.02 54.6,78.3 54.6,78.3 C54.6,78.3 54,83.77 54.56,84.33 C55.12,84.89 58.37,85.63 58.62,85.25 C59.11,84.52 59.1,81.75 59.1,81.75 C59.1,81.75 68.12,69.57 68.41,68.97 C68.52,68.74 68.02,65.05 68.02,65.05 Z" fill="#C0C0C0"/>
  <path d="M49.64,65.92 C49.61,64.71 47.84,58.97 47.52,57.68 C47.2,56.39 46.52,50.02 45.63,50.02 C44.75,50.02 40.67,61.24 40.26,62.29 C39.86,63.34 34.15,75.64 33.42,77.09 C32.7,78.54 29.4,84.81 28.76,85.86 C28.12,86.91 27.27,88.69 27.27,88.69 L43.61,99.02 L49.51,98.35 C49.51,98.35 46.06,89.08 45.25,86.99 C44.44,84.9 43.48,81.52 43.48,81.52 C43.48,81.52 45.35,77.04 46.57,73.82 C47.8,70.58 49.68,67.12 49.64,65.92 Z" fill="#C0C0C0"/>
  <path d="M25.32,87.97 C25.36,88.12 25.57,91.89 25.46,94.14 C25.35,96.4 24.91,98.66 24.91,98.66 L18.3,107.26 C18.3,107.26 6.34,111.89 5.62,112.11 C4.9,112.33 4.67,112.41 4.67,112.41 C4.67,112.41 3.17,111.5 7.66,106.6 C13.46,100.27 20.88,91.6 21.82,90.51 C23.49,88.57 25.21,87.52 25.32,87.97 Z" fill="#C0C0C0"/>
  <path d="M39.8,90.59 C39.12,90.52 38.26,92.79 37.8,94.48 C37.47,95.67 35.34,101.7 35.09,102.87 C34.83,104.05 33.51,107.53 33.87,107.69 C34.23,107.84 37.02,108.04 38.51,107.73 C39.99,107.42 43.23,104.82 43.23,104.21 C43.23,103.6 41.83,97.28 41.7,96.53 C41.34,94.38 40.86,90.7 39.8,90.59 Z" fill="#367C2D"/>
  <path d="M106.71,99.82 C106.11,99.57 104.58,106.34 104.26,108.73 C103.94,111.12 103.09,115.66 103.31,116.11 C103.95,117.38 110.77,116.54 111.43,115.45 C111.62,115.14 110.66,110.05 109.97,107.9 C109.03,104.96 108.26,100.47 106.71,99.82 Z" fill="#367C2D"/>
  <path d="M118.66,91.29 C117.72,91.33 116.72,99.54 116.1,101.33 C115.4,103.36 113.06,112.97 114.03,114.07 C115,115.17 118.71,114.3 120.09,113.9 C121.42,113.52 122.57,112.88 122.89,112.17 C123.21,111.46 122.45,105.73 121.53,101.73 C120.59,97.68 120.14,91.22 118.66,91.29 Z" fill="#367C2D"/>
  <path d="M31.47,111.25 C31.47,111.25 34.06,112.23 42.93,112.78 C51.8,113.33 56.16,113.28 56.16,113.28 L76.42,110.32 L81.02,103.04 C81.02,103.04 74.9,102.81 71.65,102.7 C68.4,102.59 63.55,102.57 63.33,101.97 C63.11,101.36 68.8,97.23 70.4,96.41 C72,95.58 75.86,95.14 76.74,94.21 C77.62,93.27 88.74,87 90.11,86.95 C91.49,86.89 95.79,89.54 96.61,89.26 C97.44,88.98 93.75,79.22 93.26,77.39 C93.22,77.23 91.27,67.72 91.21,67.54 C90.75,66.13 89.34,62.47 88.45,62.91 C87.57,63.35 86.08,66.71 84.98,70.07 C83.88,73.43 83.22,75.2 82.67,76.02 C82.12,76.84 75.73,80.93 74.84,81.86 C73.96,82.8 71.31,84.78 69.71,85.44 C68.11,86.1 66.57,86.1 65.41,87.15 C64.25,88.2 62.82,90.02 61.22,91.72 C59.62,93.43 56.37,97.35 55.3,98.31 C54.23,99.27 53.27,100.2 53.27,100.2 C53.27,100.2 45.54,102.39 42.94,103.65 C40.36,104.92 30.8,111.08 31.47,111.25 Z" fill="#C0C0C0"/>
  <path d="M76.52,106.03 C75.8,106.09 74.79,111.49 74.43,112.69 C74.23,113.37 72.56,118.02 73.01,118.8 C73.91,120.4 81.31,119.97 81.64,119.13 C81.96,118.29 79.53,112.67 79.08,111.63 C78.62,110.61 77.58,105.94 76.52,106.03 Z" fill="#367C2D"/>
  <path d="M111.79,52.02 C110.94,52.87 110.91,54.22 111.85,54.99 C112.68,55.68 114.05,55.23 114.56,54.61 C115.07,53.99 115.01,52.64 114.33,51.96 C113.65,51.28 112.3,51.51 111.79,52.02 Z" fill="#FFFFFF"/>
  <path d="M112.07,64.67 C111.16,65.67 111.46,67.16 112.3,67.71 C113.14,68.26 114.4,68.21 115.02,67.45 C115.57,66.77 115.63,65.41 114.79,64.57 C114.06,63.84 112.66,64.02 112.07,64.67 Z" fill="#FFFFFF" opacity="0.5"/>
  <path d="M86,32.06 C85.74,32.89 86.26,33.83 87.05,33.97 C87.88,34.12 88.73,33.88 88.96,33.09 C89.19,32.29 88.9,31.29 87.76,31.09 C86.62,30.89 86.13,31.61 86,32.06 Z" fill="#FFFFFF" opacity="0.6"/>
  <path d="M94.54,46.11 C94.54,46.11 95.28,43.39 95.82,43.3 C96.36,43.21 97.44,46.22 97.44,46.22 C97.44,46.22 100.13,46.31 100.22,46.73 C100.31,47.16 98.32,48.77 98.32,48.77 C98.32,48.77 99.06,51.29 98.75,51.61 C98.44,51.92 95.97,50.33 95.97,50.33 C95.97,50.33 93.76,52.2 93.25,51.86 C92.74,51.52 93.68,48.71 93.68,48.71 C93.68,48.71 91.58,47.21 91.55,46.7 C91.51,46.19 94.54,46.11 94.54,46.11 Z" fill="#FFFFFF"/>
  <path d="M33.54,38.62 C33.54,38.62 34.51,35.83 35.1,35.8 C35.68,35.77 36.53,38.59 36.53,38.59 C36.53,38.59 39.41,38.62 39.61,39.04 C39.86,39.58 37.76,41.41 37.76,41.41 C37.76,41.41 38.44,44.13 38.12,44.46 C37.76,44.82 35.27,43.39 35.27,43.39 C35.27,43.39 32.71,45.17 32.16,44.69 C31.68,44.27 32.68,41.38 32.68,41.38 C32.68,41.38 30.28,39.63 30.41,39.14 C30.58,38.46 33.54,38.62 33.54,38.62 Z" fill="#FFFFFF"/>
  <path d="M11.86,46.11 C11.26,46.08 10.44,46.68 10.44,47.71 C10.44,48.47 11.17,49.1 11.8,49.1 C12.71,49.1 13.34,48.41 13.31,47.62 C13.27,46.59 12.49,46.14 11.86,46.11 Z" fill="#FFFFFF" opacity="0.5"/>
  <path d="M18.47,61.03 C18.53,62.17 19.1,63.14 20.58,63.1 C22.06,63.06 23.28,60.79 21.87,59.46 C20.46,58.13 18.39,59.5 18.47,61.03 Z" fill="#FFFFFF"/>
  <path d="M8.65,74.98 C9.35,75.76 11.03,75.45 11.07,74.08 C11.11,72.83 10.48,72.24 9.31,72.4 C8.15,72.56 7.8,74.03 8.65,74.98 Z" fill="#FFFFFF"/>
  <path d="M45.91,92.85 C45.32,93.05 44.59,95.33 43.9,97.69 C43.46,99.18 42.18,103.65 42.49,103.87 C42.8,104.09 45.89,104.24 47.11,103.49 C48.33,102.74 49.22,102.09 49.38,101.65 C49.54,101.21 48.14,97.33 47.6,95.91 C47.18,94.84 46.53,92.63 45.91,92.85 Z" fill="#367C2D"/>
  <path d="M35.53,20.08 C34.62,21.08 34.92,22.57 35.76,23.12 C36.6,23.67 37.86,23.62 38.48,22.86 C39.03,22.18 39.09,20.82 38.25,19.98 C37.52,19.26 36.11,19.44 35.53,20.08 Z" fill="#FFFFFF" opacity="0.5"/>
</svg>
